icons/split-units-32.svg

<svg xmlns="http://www.w3.org/2000/svg" viewBox="0 0 32 32"><path d="M30 5v23H18v-1h11V6H18V5zM3 28h12v-1H4V6h11V5H3zm13-3h1v-2h-1zm0-3h1v-2h-1zm0 9h1v-2h-1zm0-3h1v-2h-1zm0-9h1v-2h-1zm0-3h1v-2h-1zm0-3h1v-2h-1zm0-3h1V8h-1zm0-3h1V5h-1zm0-3h1V2h-1z"/><path fill="none" d="M0 0h32v32H0z"/></svg>

<svg id="icons" xmlns="http://www.w3.org/2000/svg" viewBox="0 0 32 32"><defs><style>.cls-1{fill:none;}</style></defs><path d="M30,5V28H18V27H29V6H18V5ZM3,28H15V27H4V6H15V5H3Zm13-3h1V23H16Zm0-3h1V20H16Zm0,9h1V29H16Zm0-3h1V26H16Zm0-9h1V17H16Zm0-3h1V14H16Zm0-3h1V11H16Zm0-3h1V8H16Zm0-3h1V5H16Zm0-3h1V2H16Z"/><rect class="cls-1" width="32" height="32"/></svg>
